X:37
T:Nualla's Welcome Back
R:jig
C:Paul S. Cranford
O:Cape Breton Island
S:http://www.cranfordpub.com
D:currently unrecorded
B:currently unpublished in book form
Z:psc
H:                                                        copyrights Cranford Publications, SOCAN
L:1/8
Q:300
M:6/8
K:D
fAa g2 b|afd ~A3|BdG dBd|ceA ece|
fAa g2 b|afd ~A3|BdG ece|[1d3 d2 g:|[2d2 A def||
|:gag eAe|fAe ded|ceA ece|fAe def|
gag eAe|fAe ded|ceA bAa|[1age def:|[2age cde|]
